src/images/logo.svg

<svg clip-rule="evenodd" fill-rule="evenodd" stroke-linejoin="round" stroke-miterlimit="2" viewBox="0 0 1419 425" xmlns="http://www.w3.org/2000/svg"><g fill="#fff" fill-rule="nonzero"><path d="m239.78 236.63 14.22 15.44.89-98.31h23.21v150.59h-4.16l-85.55-86.14-11.88-13.07v98h-23.76v-151.14h4.75zm261.09 66.23-58.52-85.86-58.51 85.84h-28.52l72.18-104-65.94-98.84h29.44l51.08 80.5 52.55-80.5h28.51l-66.23 98.9 73.06 104zm198.13-127.72h-49.3v127.72h-23.7v-127.72h-49.3v-21.38h122.3zm105.16 105.15h88.51v22.57h-112.27v-202.86h23.76zm191.7-42.18 7.43 18.71 8-18.41 36.23-84.65h26.14l-69.5 150.29h-3l-68.86-150.29h28.22zm181.22 42.18h88.51v22.57h-112.27v-202.86h23.76zm220.39-1.29v9.47h7.53v-8.24h2.61v8.24h8.13v-9.47h2.61v12.22h-23.45v-12.22zm-2.74-17.09c-.02-1.845.4-3.669 1.2-5.33l2.47.52c-.68 1.475-1.04 3.076-1.07 4.7 0 2.61 1.17 3.92 3 3.92 4.67 0 4.91-9.65 11.91-9.65 3.37 0 6.25 2.27 6.25 7.38.02 2.024-.48 4.019-1.44 5.8l-2.58-.51c.92-1.597 1.42-3.405 1.45-5.25 0-3.23-1.27-4.67-3.34-4.67-5.21 0-5.49 9.82-12.18 9.82-3.4 0-5.67-2.44-5.67-6.73zm2.74-34.01v8.2h20.84v2.9h-20.84v8.21h-2.61v-19.31zm19.06-7.9c.98 0 1.79.808 1.79 1.79s-.81 1.79-1.79 1.79-1.79-.808-1.79-1.79v-.02c0-.971.8-1.77 1.77-1.77zm-.83-29.92h2.61v14.92h-.68c-5.57-5.67-11.4-11-15.59-11-3.26 0-4.71 2.16-4.71 5 .03 1.713.37 3.406 1 5l-2.57.62c-.74-1.8-1.14-3.723-1.17-5.67 0-4.39 2.34-7.89 7.07-7.89 5 0 11.2 5.84 14 8.75zm-20.94-18.57c0-5.67 4.77-9.45 12-9.45s11.78 3.78 11.78 9.45-4.71 9.44-11.78 9.44-12-3.78-12-9.44zm20.81 0c0-4.13-3.33-6.53-8.86-6.53s-9 2.61-9 6.53c0 4.12 3.4 6.52 9 6.52s8.86-2.4 8.86-6.52zm.13-32.32h2.61v14.87h-.68c-5.57-5.67-11.4-11-15.59-11-3.26 0-4.71 2.16-4.71 5 .03 1.713.37 3.406 1 5l-2.57.62c-.74-1.8-1.14-3.723-1.17-5.67 0-4.39 2.34-7.89 7.07-7.89 5 0 11.2 5.83 14 8.75zm-20.94-18.58c0-5.66 4.77-9.44 12-9.44s11.78 3.78 11.78 9.44-4.71 9.45-11.78 9.45-12-3.78-12-9.45zm20.81 0c0-4.12-3.33-6.52-8.86-6.52s-9 2.61-9 6.52c0 4.12 3.4 6.53 9 6.53s8.86-2.41 8.86-6.53z"/><path d="m1394 303.17v96.83h-1369.66v-375.66h1369.66v75.83h24.34v-100.17h-1418.34v424.34h1418.34v-121.17z"/></g></svg>

<svg xmlns="http://www.w3.org/2000/svg" fill-rule="evenodd" stroke-linejoin="round" stroke-miterlimit="2" clip-rule="evenodd" viewBox="0 0 1419 425"><g fill="#fff" fill-rule="nonzero"><path d="M239.78 236.63L254 252.07l.89-98.31h23.21v150.59h-4.16l-85.55-86.14-11.88-13.07v98h-23.76V152h4.75l82.28 84.63zM500.87 302.86L442.35 217l-58.51 85.84h-28.52l72.18-104L361.56 100H391l51.08 80.5 52.55-80.5h28.51l-66.23 98.9 73.06 104-29.1-.04zM699 175.14h-49.3v127.72H626V175.14h-49.3v-21.38H699v21.38zM804.16 280.29h88.51v22.57H780.4V100h23.76v180.29zM995.86 238.11l7.43 18.71 8-18.41 36.23-84.65h26.14l-69.5 150.29h-3L932.3 153.76h28.22l35.34 84.35zM1177.08 280.29h88.51v22.57h-112.27V100h23.76v180.29zM1397.47 279v9.47h7.53v-8.24h2.61v8.24h8.13V279h2.61v12.22h-23.45V279h2.57zM1394.73 261.91c-.02-1.845.4-3.669 1.2-5.33l2.47.52c-.68 1.475-1.04 3.076-1.07 4.7 0 2.61 1.17 3.92 3 3.92 4.67 0 4.91-9.65 11.91-9.65 3.37 0 6.25 2.27 6.25 7.38.02 2.024-.48 4.019-1.44 5.8l-2.58-.51c.92-1.597 1.42-3.405 1.45-5.25 0-3.23-1.27-4.67-3.34-4.67-5.21 0-5.49 9.82-12.18 9.82-3.4 0-5.67-2.44-5.67-6.73zM1397.47 227.9v8.2h20.84v2.9h-20.84v8.21h-2.61V227.9h2.61zM1416.53 220c.98 0 1.79.808 1.79 1.79s-.81 1.79-1.79 1.79-1.79-.808-1.79-1.79v-.02c0-.971.8-1.77 1.77-1.77h.02zM1415.7 190.08h2.61V205h-.68c-5.57-5.67-11.4-11-15.59-11-3.26 0-4.71 2.16-4.71 5 .03 1.713.37 3.406 1 5l-2.57.62c-.74-1.8-1.14-3.723-1.17-5.67 0-4.39 2.34-7.89 7.07-7.89 5 0 11.2 5.84 14 8.75l.04-9.73zM1394.76 171.51c0-5.67 4.77-9.45 12-9.45s11.78 3.78 11.78 9.45-4.71 9.44-11.78 9.44c-7.07 0-12-3.78-12-9.44zm20.81 0c0-4.13-3.33-6.53-8.86-6.53-5.53 0-9 2.61-9 6.53 0 4.12 3.4 6.52 9 6.52s8.86-2.4 8.86-6.52zM1415.7 139.19h2.61v14.87h-.68c-5.57-5.67-11.4-11-15.59-11-3.26 0-4.71 2.16-4.71 5 .03 1.713.37 3.406 1 5l-2.57.62c-.74-1.8-1.14-3.723-1.17-5.67 0-4.39 2.34-7.89 7.07-7.89 5 0 11.2 5.83 14 8.75l.04-9.68zM1394.76 120.61c0-5.66 4.77-9.44 12-9.44s11.78 3.78 11.78 9.44-4.71 9.45-11.78 9.45c-7.07 0-12-3.78-12-9.45zm20.81 0c0-4.12-3.33-6.52-8.86-6.52-5.53 0-9 2.61-9 6.52 0 4.12 3.4 6.53 9 6.53s8.86-2.41 8.86-6.53z"/><path d="M1394 303.17V400H24.34V24.34H1394v75.83h24.34V0H0v424.34h1418.34V303.17H1394z"/></g></svg>
